X:1
T:Title
%%score { ( 1 3 ) | 2 }
L:1/8
M:3/4
K:Ab
V:1 treble nm="Grand Piano"
V:3 treble 
V:2 bass 
V:1
 z2 z2 z[Q:1/4=92] [CE] | [CE]>[Ec] [Ec]3 [Fd] | c>B B3 E | E>B B3 c |[M:5/8] [DB]>[CA] [CA]3 | %5
[M:1/8] [CE] |[M:3/4] z2 c4 | [Fe]>[Fd] [Fd]3 [Fd] | c>E c3 B |[M:5/8] [DB]>[CA] [CA]3 | %10
[M:1/8] [Ac] |[M:3/4] [Ge]>[GB] [GB]3 [GB] | [Ae]>A A3 A | A>G G3 F |[M:5/8] [DF]>[CE] [CE]3 | %15
[M:1/8] [CE] |[M:3/4] z2 c4 | [Fe]>[Fd] [Fd]3 [Fd] | c>E c3 B |[M:5/8] [DB]>[CA] [CA]3 |] %20
V:2
 z2 z2 z [A,,A,] | [A,,A,]>[A,,A,] [A,,A,]3 [A,,A,] | [E,A,E]>[E,G,D] [E,G,D]3 [E,G,D] | %3
 [E,G,D]>[E,G,D] [E,G,D]3 [E,G,E] |[M:5/8] [A,,A,]>[A,,A,] [A,,A,]3 |[M:1/8] [A,,A,] | %6
[M:3/4] [A,,A,]>[A,,A,] [A,,A,]3 [C,A,] | [D,A,]>[D,A,] [D,A,]3 [D,A,] | %8
 [E,A,E]>[E,A,C] [E,A,E]3 [E,G,D] |[M:5/8] [A,,A,]>[A,,A,] [A,,A,]3 |[M:1/8] [A,E] | %11
[M:3/4] [E,D]>[E,D] [E,D]3 [E,D] | [E,C]>[E,CE] [E,CE]3 [E,CE] | [E,B,D]>[E,B,D] [E,B,D]3 [E,G,D] | %14
[M:5/8] [A,,A,]>[A,,A,] [A,,A,]3 |[M:1/8] [A,,A,] |[M:3/4] [A,,A,]>[A,,A,] [A,,A,]3 [C,A,] | %17
 [D,A,]>[D,A,] [D,A,]3 [D,A,] | [E,A,E]>[E,A,C] [E,A,E]3 [E,G,D] | %19
[M:5/8] [A,,A,]>[A,,A,] [A,,A,]3 |] %20
V:3
 x6 | x6 | x6 | x6 |[M:5/8] x5 |[M:1/8] x |[M:3/4] [CE]>[Ec] E2 _G[Ge] | x6 | x6 |[M:5/8] x5 | %10
[M:1/8] x |[M:3/4] x6 | x6 | x6 |[M:5/8] x5 |[M:1/8] x |[M:3/4] [CE]>[Ec] E2 _G[Ge] | x6 | x6 | %19
[M:5/8] x5 |] %20

